X:1
T:Aspen, 87.87 D
T:Aspen, 87.87 D
T:Sanford Miller Brown, 1889
T:Public Domain Courtesy of the Cyber Hymnal™
C:Sanford Miller Brown, 1889
Z:Public Domain
Z:Courtesy of the Cyber Hymnal™
%%score ( 1 2 ) ( 3 4 )
L:1/8
Q:1/4=112
M:4/4
K:C
V:1 treble 
V:2 treble 
V:3 bass 
V:4 bass 
V:1
 c3 c c2 G2 | A2 B2 c2 c2 | [FA]3 [FA] [EG]2 [CE]2 | [DF]2 [B,D]2 [CE]4 | c3 c c2 G2 | %5
 A2 B2 c2 A2 | [^Fd]3 [Fd] [Fd]2 [Fc]2 | [^FB]2 [FA]2 G4 | [Ge]3 [Fd] [Ec]2 [EG]2 | %9
 [FA]2 [FB]2 [Ec]2 [Gc]2 | [Gd]3 [Gd] [Gd]2 [Gd]2 | [Gc]2 [Gd]2 [Ge]4 | [Ge]3 [Fd] [Ec]2 [EG]2 | %13
 [FA]2 [FB]2 [Ec]2 [Ge]2 | [Fd]3 [Fd] [Fd]2 [Af]2 | !fermata![Ge]2 !fermata![Fd]2 [Ec]4 |] %16
V:2
 c3 c c2 G2 | A2 B2 c2 c2 | x8 | x8 | c3 c c2 G2 | A2 B2 c2 A2 | x8 | x4 G4 | x8 | x8 | x8 | x8 | %12
 x8 | x8 | x8 | x8 |] %16
V:3
 C3 C C2 G,2 | A,2 B,2 C2 [C,C]2 | [F,C]3 [F,C] [C,C]2 [C,G,]2 | [G,,G,]2 [G,,G,]2 [C,G,]4 | %4
 C3 C C2 G,2 | A,2 B,2 C2 A,2 | [D,A,]3 [D,A,] [D,A,]2 [D,D]2 | [D,D]2 [D,C]2 [G,B,]4 | %8
 [C,C]3 [C,C] [C,C]2 [C,C]2 | [F,C]2 [F,C]2 [C,C]2 [E,C]2 | [G,B,]3 [G,B,] [G,B,]2 [G,B,]2 | %11
 [E,C]2 [G,B,]2 C4 | [C,C]3 [C,C] [C,C]2 [C,C]2 | [F,C]2 [F,C]2 [C,C]2 [C,C]2 | %14
 [F,A,]3 [F,A,] [F,A,]2 [D,A,]2 | !fermata![G,C]2 !fermata![G,,B,]2 [C,C]4 |] %16
V:4
 C3 C C2 G,2 | A,2 B,2 C2 x2 | x8 | x8 | C3 C C2 G,2 | A,2 B,2 C2 A,2 | x8 | x8 | x8 | x8 | x8 | %11
 x4 C4 | x8 | x8 | x8 | x8 |] %16

